X:1
T:He Was Nailed to the Cross for Me
T:Frederick Arthur Graves, 1906
T:He Was Nailed to the Cross for Me
T:Public Domain
T:Public Domain
C:Frederick Arthur Graves, 1906
Z:Public Domain
%%score ( 1 2 ) ( 3 4 )
L:1/8
M:6/8
K:Eb
V:1 treble 
V:2 treble 
V:3 bass 
V:4 bass 
V:1
 E/F/ | G>FE A>GG x3/2 | G F4 D/E/ | F>FF E2 F | G3- G2 E/F/ | G>FE A2 G | G F4 D/E/ | FGA G2 F | %8
w: 1.~What a|ful, won- der- ful Sav- ior,|for me! Free- ly|cious life- blood, That the|free. * * *||||
w: 2.~Thus He|His heav- en- ly glo- ry,|ther’s plan; He was|gin Ma- ry, Took up-|man. * He was|cross for me, He was|me; On the cross|me He died; He was|
w: 3.~He was|for o- ur trans- gress- ions,|rows, too; He’s the|’ry sick- ness, This He|do. * * *||||
w: 4.~So He|His li- fe for o- thers|from sin, And He’s|a man- sion, That at|in. * * *||||
 E3- E2 ||[M:4/4]"^Refrain" E>[EF] | [EG]2 [EG]>[E^F] [EG]2 E2 | [DF]6 [DF]>[EG] | %12
w: ||||
w: me. *||||
w: ||||
w: ||||
 [FA]2 [Dc]>[Dc] [EB]2 [DF]2 | [EG]6 E>[EF] | [EG]2 [EG]>[FA] [GB]3 [EG] | %15
w: |||
w: |||
w: |||
w: |||
 [EA]2 [Ac]2 [GB]2 E>[EF] | [EG]2 [GB]>[FA] [EG]2 [DF]2 | E6 |] %18
w: |||
w: |||
w: |||
w: |||
V:2
 E/F/ | G>FE A>GG x3/2 | G F4 D/E/ | F>FF E2 F | G3- G2 E/F/ | G>FE A2 G | G F4 D/E/ | FGA G2 F | %8
w: won- der-|Who would die on the cross|shed- ding His pre-|sin- ner might be made|||||
w: le- ft|To ac- comp- lish His Fa-|born of the vir-|on Him the form of|nailed * to the|nailed to the cross for|cru- ci- fied for|nailed to the cross for|
w: wound- ed|And He car- ried our sor-|Heal- er of ev-|came to the world to|||||
w: ga- ve|In Re- deem- ing this world|gone to pre- pare|last we may en- ter|||||
 E3- E2 ||[M:4/4] E3/2 x/ | x6 E2 | x8 | x8 | x6 E3/2 x/ | x8 | x6 E3/2 x/ | x8 | E6 |] %18
w: ||||||||||
w: ||||||||||
w: ||||||||||
w: ||||||||||
V:3
 G,/A,/ | B,>A,G, C>B,B, x3/2 | B, A,2- [B,,A,]2 F,/G,/ | A,>A,A, G,2 A, | %4
w: ~ ~|~ ~ ~ ~ ~ ~|~ ~ ~ ~ ~|~ ~ ~ ~ ~|
 [E,,E,B,]3- [E,,E,B,]2 G,/A,/ | B,>A,G, C2 B, | B, A,2- [B,,A,]2 F,/G,/ | A,B,C B,2 A, | %8
w: ~ * ~ ~|~ ~ ~ ~ ~|~ ~ ~ ~ He|nailed * to the cross,|
 [E,,E,G,]3- [E,,E,G,]2 ||[M:4/4] [E,G,]>[E,A,] | [E,B,]2 [E,B,]>[E,=A,] [E,B,]2 [E,G,]>[E,G,] | %11
w: ~ *|~ ~|~ ~ He was nailed to|
 [B,,B,]2 [F,B,]>[D,B,] [B,,B,]2 [B,,B,]>[B,,B,] | %12
w: the cross, * * * *|
 [B,,B,]2 [B,,A,]>[B,,A,] [B,,G,]2 [B,,B,]>[B,,B,] | [E,B,]2 B,>[G,B,] [E,B,]2 [E,G,]>[E,A,] | %14
w: ||
 [E,B,]2 [E,B,]>[E,E] [E,E]3 [E,_D] | [A,,C]2 [A,,E]2 [E,E]2 [E,G,]>[E,A,] | %16
w: ||
 [E,B,]2 [E,E]>[A,C] B,2 [B,,A,]2 | [E,G,]6 |] %18
w: ||
V:4
 x | [E,,E,]3- [E,,E,]3 B,/B, | B,,3- x3 | B,,3- B,,3 | x5 G,/A,/ | E,,3- E,,3 | B,,3- x3 | %7
w: |~ * ~ ~|~||~ ~|~ *|was|
 B,,3- B,,3 | x5 ||[M:4/4] x2 | x8 | x8 | x8 | x2 B,3/2 x9/2 | x8 | x8 | x4 B,2 x2 | x6 |] %18
w: ~ *|||||||||||

